desc: -12dB Dim
author: The REAPER Blog
about:
  No controls needed, shift-click the plugin from the mixer to disable.  
  Insert on master as a secondary monitor reference level.  
  Insert after a particularly loud plugin to get closer to sensible levels.
version: 1.0
changelog: Initial Release

@sample

spl0*=0.25; spl1*=0.25;
