/*
  @description -12dB Dim
  @version 1.0
  @author The REAPER Blog
  @about
	No controls needed, shift-click the plugin from the mixer to disable.  
 	Insert on master as a secondary monitor reference level.  
 	Insert after a particularly loud plugin to get closer to sensible levels.
  @changelog
    + v1.0 (2016-07-17) Initial Release
*/


desc:ReaperBlog_-12 db dim

@sample

 spl0*=0.25; spl1*=0.25;
