desc: Multichannel Volume Trim 2
//desc: single fader to trim 32-channels by same amount
//Version: 1.0
//Author: REAPER Blog
//Links:
// https://forum.cockos.com/showthread.php?t=205533
// https://reaperblog.net/2018/04/multichannel-volume-trimming/ ‎

slider1:dB1=0.0<-144.0, 18.0, 0.1>Volume (dB)

@slider
vol1 = 10 ^ (dB1 / 20);

@sample
x=0;
loop(32,//up to this number of track channels
  spl(x)*= vol1;
  x+=1;
);

