desc: Description for REAPER and ReaPack package browser
// @version 1.0.5
// @author John Doe
// @changelog
//   - Added super cool feature XYZ
//   - Removed unused triggers

@init

@slider

@block

@sample
